X: 27
T: Rodney's Glory
M: 4/4
L: 1/8
B: "O'Neill's 27"
N: "Slow" "collected by F. O'Neill"
Z: "Transcribed by Norbert Paap, norbertp@bdu.uva.nl"
K:Am
e>d | c2 B>-c A2 A-c | B2 B>-A G2 c-d | e2 e-d (cde^f) | (gedc) d2 e-d |
c2 B>c A2 Ac | B2 B>A G2 e>d | c2 A2 BAGB | A4 A2 ||
zd | (ede^f) g2 e-d | c2 d2 c2 c-d | (ede^f) g=fed | dcBA G3 B |
A2 A>B c2 d2 | e2 e2 a3 b | (aged) c2 A-c | B2 B>-A G2 e>-d |
c2 B>-c A2 A>-c | B2 B>-A G2 e>-d | c2 A2 B-AG-B | A4 A2 ||


